archdroid-icon-theme/Archdroid-DeepPurple/devices/scalable/scanner.svg

<svg fill="#673AB7" height="48" viewBox="0 0 48 48" width="48" xmlns="http://www.w3.org/2000/svg"><path d="m20 2v4h-10c-2.21 0-4 1.79-4 4v28c0 2.21 1.79 4 4 4h10v4h4v-4-4-2-5.564453-20.435547-4-4zm8 4v4h10v26 2h-10v4h10c2.21 0 4-1.79 4-4v-28c0-2.21-1.79-4-4-4zm10 30-9-12-1 1.287109v10.712891zm-28-26h10v20.605469l-3-3.605469-7 9h10v2h-10v-2z" fill="#673AB7"/></svg>

<svg fill="#673AB7" height="48" version="1.1" viewBox="0 0 48 48" width="48" xmlns="http://www.w3.org/2000/svg"><path d="M20 2L20 6 10 6C7.79 6 6 7.79 6 10L6 38C6 40.21 7.79 42 10 42L20 42 20 46 24 46 24 42 24 38 24 36 24 30.435547 24 10 24 6 24 2 20 2zM28 6L28 10 38 10 38 36 38 38 28 38 28 42 38 42C40.21 42 42 40.21 42 38L42 10C42 7.79 40.21 6 38 6L28 6zM38 36L29 24 28 25.287109 28 36 38 36zM10 10L20 10 20 30.605469 17 27 10 36 20 36 20 38 10 38 10 36 10 10z" fill="#673AB7"/></svg>
